assets/img/braze_icons/dice-5.svg

<svg fill="none" height="24" viewBox="0 0 24 24" width="24" xmlns="http://www.w3.org/2000/svg"><path clip-rule="evenodd" d="m17.8385 2h-11.67704c-.52713-.00002-.98192-.00003-1.35649.03057-.39534.0323-.78856.10362-1.16694.29641-.56449.28762-1.02343.74656-1.31105 1.31105-.19279.37838-.26411.7716-.29641 1.16694-.0306.37457-.03059.82932-.03057 1.35645v11.67708c-.00002.5272-.00003.982.03057 1.3565.0323.3954.10362.7886.29641 1.167.28762.5645.74656 1.0234 1.31105 1.311.37838.1928.7716.2641 1.16694.2964.37457.0306.82933.0306 1.35647.0306h11.67716c.5271 0 .9819 0 1.3564-.0306.3954-.0323.7886-.1036 1.167-.2964.5645-.2876 1.0234-.7465 1.311-1.311.1928-.3784.2641-.7716.2964-1.167.0306-.3745.0306-.8293.0306-1.3564v-11.67716c0-.52714 0-.9819-.0306-1.35647-.0323-.39534-.1036-.78856-.2964-1.16694-.2876-.56449-.7465-1.02343-1.311-1.31105-.3784-.19279-.7716-.26411-1.167-.29641-.3745-.0306-.8293-.03059-1.3565-.03057zm-2.8385 5.5c0-.82843.6716-1.5 1.5-1.5s1.5.67157 1.5 1.5-.6716 1.5-1.5 1.5-1.5-.67157-1.5-1.5zm-4.5 4.5c0-.8284.6716-1.5 1.5-1.5s1.5.6716 1.5 1.5-.6716 1.5-1.5 1.5-1.5-.6716-1.5-1.5zm-3 3c-.82843 0-1.5.6716-1.5 1.5s.67157 1.5 1.5 1.5 1.5-.6716 1.5-1.5-.67157-1.5-1.5-1.5zm9 0c.8284 0 1.5.6716 1.5 1.5s-.6716 1.5-1.5 1.5-1.5-.6716-1.5-1.5.6716-1.5 1.5-1.5zm-7.5-7.5c0-.82843-.67157-1.5-1.5-1.5s-1.5.67157-1.5 1.5.67157 1.5 1.5 1.5 1.5-.67157 1.5-1.5z" fill="#801ed7" fill-rule="evenodd"/></svg>

<svg width="24" height="24" viewBox="0 0 24 24" fill="none" xmlns="http://www.w3.org/2000/svg">
<path fill-rule="evenodd" clip-rule="evenodd" d="M17.8385 2H6.16146C5.63433 1.99998 5.17954 1.99997 4.80497 2.03057C4.40963 2.06287 4.01641 2.13419 3.63803 2.32698C3.07354 2.6146 2.6146 3.07354 2.32698 3.63803C2.13419 4.01641 2.06287 4.40963 2.03057 4.80497C1.99997 5.17954 1.99998 5.63429 2 6.16142V17.8385C1.99998 18.3657 1.99997 18.8205 2.03057 19.195C2.06287 19.5904 2.13419 19.9836 2.32698 20.362C2.6146 20.9265 3.07354 21.3854 3.63803 21.673C4.01641 21.8658 4.40963 21.9371 4.80497 21.9694C5.17954 22 5.6343 22 6.16144 22H17.8386C18.3657 22 18.8205 22 19.195 21.9694C19.5904 21.9371 19.9836 21.8658 20.362 21.673C20.9265 21.3854 21.3854 20.9265 21.673 20.362C21.8658 19.9836 21.9371 19.5904 21.9694 19.195C22 18.8205 22 18.3657 22 17.8386V6.16144C22 5.6343 22 5.17954 21.9694 4.80497C21.9371 4.40963 21.8658 4.01641 21.673 3.63803C21.3854 3.07354 20.9265 2.6146 20.362 2.32698C19.9836 2.13419 19.5904 2.06287 19.195 2.03057C18.8205 1.99997 18.3657 1.99998 17.8385 2ZM15 7.5C15 6.67157 15.6716 6 16.5 6C17.3284 6 18 6.67157 18 7.5C18 8.32843 17.3284 9 16.5 9C15.6716 9 15 8.32843 15 7.5ZM10.5 12C10.5 11.1716 11.1716 10.5 12 10.5C12.8284 10.5 13.5 11.1716 13.5 12C13.5 12.8284 12.8284 13.5 12 13.5C11.1716 13.5 10.5 12.8284 10.5 12ZM7.5 15C6.67157 15 6 15.6716 6 16.5C6 17.3284 6.67157 18 7.5 18C8.32843 18 9 17.3284 9 16.5C9 15.6716 8.32843 15 7.5 15ZM16.5 15C17.3284 15 18 15.6716 18 16.5C18 17.3284 17.3284 18 16.5 18C15.6716 18 15 17.3284 15 16.5C15 15.6716 15.6716 15 16.5 15ZM9 7.5C9 6.67157 8.32843 6 7.5 6C6.67157 6 6 6.67157 6 7.5C6 8.32843 6.67157 9 7.5 9C8.32843 9 9 8.32843 9 7.5Z" fill="#801ED7"/>
</svg>
